!!!OTL: "Die Versuchung" DES MORGENS IN DER KUEHLEN ZEIT
!!!ARE: Europa, Mitteleuropa, Deutschland, Niederrhein
!!!SCT: Z1278
!!!YEM: Copyright 1995, estate of Helmut Schaffrath.
**kern
*ICvox
*Ivox
*M6/8
*k[f#]
*G:
{8g
=1
4g
8dd
4b
8g
=2
8a
8g
8a
4b}
{8dd
=3
4cc
8b
4.a
=4
4g
4.r}
{8b
=5
8cc
8cc
8cc
8b
8b
8a
=6
4b
8cc#
4dd}
{8cc
=7
4b
8a
4g
8dd
=8
4ee
8dd
4cc}
{8b
=9
8a
8a
8a
4a
8b
=10
4g
4.r}
==
!!!AGN: Natur und Welt
!!!ONB: ESAC (Essen Associative Code) Database: ZUCCAL
!!!AMT: compound duple
!!!AIN: vox
!!!EED: Helmut Schaffrath
!!!EEV: 1.0
*-
